X:1
T:Barnabas, 76.76.77.76
T:Barnabas, 76.76.77.76
T:Adapted from the French Psalter, 1561
T:Public Domain Courtesy of the Cyber Hymnal™
C:Adapted from the French Psalter, 1561
Z:Public Domain
Z:Courtesy of the Cyber Hymnal™
%%score ( 1 2 ) ( 3 4 )
L:1/8
Q:1/4=115
M:4/4
K:F
V:1 treble 
V:2 treble 
V:3 bass 
V:4 bass 
V:1
 [Fc]2 [GB]2 [FA]2 [Fd]2 | [Fc]2 [EB]2 [FA]2 [Fc]2 | [FB]2 [FA]2 [FG]2 [EG]2 | F8 | %4
 [Fc]2 [GB]2 [FA]2 [Fd]2 | [Fc]2 [EB]2 [FA]2 [Fc]2 | [FB]2 [FA]2 [FG]2 [EG]2 | F8 | %8
 [CF]2 [FA]2 [DG]2 [Gc]2 | [Fc]2 [F=B]2 [Ec]4 | [Dd]2 [Ed]2 [Fc]2 [FA]2 | [FB]2 [EB]2 [FA]4 | %12
 [Fc]2 [GB]2 [FA]2 [Fc]2 | [FB]2 [FA]2 [EG]2 [Fc]2 | F2 [FB]2 [FA]2 [EG]2 | F8 |] %16
V:2
 x8 | x8 | x8 | F8 | x8 | x8 | x8 | F8 | x8 | x8 | x8 | x8 | x8 | x8 | F2 x6 | F8 |] %16
V:3
 [F,A,]2 [E,C]2 [F,C]2 (B,A,) | (G,F,) [C,G,]2 F,2 [F,A,]2 | [D,B,]2 [C,C]2 [B,,D]2 (CB,) | %3
 [F,A,]8 | [A,C]2 [E,C]2 [F,C]2 (B,A,) | G,F, [C,G,]2 F,2 [F,A,]2 | [D,B,]2 [C,C]2 [B,,D]2 (CB,) | %7
 [F,A,]8 | [F,A,]2 [F,C]2 [F,=B,]2 [E,C]2 | [D,D]2 [D,G,]2 [C,G,]4 | %10
 [B,,G,]2 [B,,G,]2 [A,,A,]2 [D,A,]2 | [G,,D]2 [C,C]2 [F,C]4 | [A,C]2 [E,C]2 [F,C]2 [A,,C]2 | %13
 [B,,D]2 [F,C]2 [C,C]2 [A,,C]2 | [D,A,]2 [B,,D]2 [C,C]2 [C,B,]2 | [F,A,]8 |] %16
V:4
 x6 B,,2 | C,2 x F,2 x3 | x6 C,2 | x8 | x6 B,,2 | C,2 x F,2 x3 | x6 C,2 | x8 | x8 | x8 | x8 | x8 | %12
 x8 | x8 | x8 | x8 |] %16

